odnoklassniki.svg

<svg xmlns="http://www.w3.org/2000/svg" width="16" height="26"><path fill-rule="evenodd" d="M7.98 13.14c3.72 0 6.73-2.94 6.73-6.57 0-3.64-3.01-6.58-6.73-6.58-3.71 0-6.72 2.94-6.72 6.58 0 3.63 3.01 6.57 6.72 6.57zm0-9.81c1.83 0 3.31 1.45 3.31 3.24 0 1.78-1.48 3.23-3.31 3.23-1.82 0-3.3-1.45-3.3-3.23 0-1.79 1.48-3.24 3.3-3.24zm7.75 10.62c-.38-.75-1.43-1.37-2.82-.29-1.89 1.45-4.93 1.45-4.93 1.45s-3.03 0-4.92-1.45c-1.39-1.08-2.44-.46-2.82.29-.67 1.3.08 1.93 1.77 2.99 1.44.9 3.42 1.24 4.7 1.37l-1.07 1.04-3.96 3.88c-.6.59-.6 1.54 0 2.13l.18.18c.6.59 1.58.59 2.18 0l3.96-3.88c1.51 1.47 2.96 2.89 3.96 3.88.6.59 1.58.59 2.18 0l.18-.18c.61-.59.61-1.54 0-2.13l-3.96-3.88-1.07-1.05c1.28-.13 3.24-.47 4.67-1.36 1.69-1.06 2.43-1.69 1.77-2.99z"/></svg>

<?xml version="1.0" encoding="utf-8"?>
<svg xmlns="http://www.w3.org/2000/svg"
	xmlns:xlink="http://www.w3.org/1999/xlink"
	width="16px" height="26px">
<path fill="rgb(0,0,0)" fill-rule="evenodd" d="M 7.98 13.14C 11.7 13.14 14.71 10.2 14.71 6.57 14.71 2.93 11.7-0.01 7.98-0.01 4.27-0.01 1.26 2.93 1.26 6.57 1.26 10.2 4.27 13.14 7.98 13.14ZM 7.98 3.33C 9.81 3.33 11.29 4.78 11.29 6.57 11.29 8.35 9.81 9.8 7.98 9.8 6.16 9.8 4.68 8.35 4.68 6.57 4.68 4.78 6.16 3.33 7.98 3.33ZM 15.73 13.95C 15.35 13.2 14.3 12.58 12.91 13.66 11.02 15.11 7.98 15.11 7.98 15.11 7.98 15.11 4.95 15.11 3.06 13.66 1.67 12.58 0.62 13.2 0.24 13.95-0.43 15.25 0.32 15.88 2.01 16.94 3.45 17.84 5.43 18.18 6.71 18.31 6.71 18.31 5.64 19.35 5.64 19.35 4.14 20.82 2.69 22.24 1.68 23.23 1.08 23.82 1.08 24.77 1.68 25.36 1.68 25.36 1.86 25.54 1.86 25.54 2.46 26.13 3.44 26.13 4.04 25.54 4.04 25.54 8 21.66 8 21.66 9.51 23.13 10.96 24.55 11.96 25.54 12.56 26.13 13.54 26.13 14.14 25.54 14.14 25.54 14.32 25.36 14.32 25.36 14.93 24.77 14.93 23.82 14.32 23.23 14.32 23.23 10.36 19.35 10.36 19.35 10.36 19.35 9.29 18.3 9.29 18.3 10.57 18.17 12.53 17.83 13.96 16.94 15.65 15.88 16.39 15.25 15.73 13.95Z"/>
</svg>
